X:1
T:153 - Perdão
T:Letra: Antônio José dos Santos Neves (1827-1874)
T:Música: Ira David Sankey (1840-1908)
M:4/4
L:1/8
Q:1/4=115
K:Eb
V:1
B2 | "Eb"B3B =A2B2 | e4 B2G2 | "Eb/Bb"B3B "Bb7"A2F2 | "Eb"G4z2 B2 | B3B =A2B2 | e4 B2G2 | "Eb/Bb"B3B "Bb7"A2D2 | "Eb"E4z2G2 | "Bb"F3=EF2 "Bb7"c2 | "Eb"B3G B2G2 | "Bb/F"F2B2 "F7"B=A dc | "Bb"B4z2 "Bb7"BA | "Eb"G2G2 "Bb"B2B2 | "Cm"e4 "Ab"c2 (dc) | "Eb/Bb"B3B "Bb7"A2D2 | "Eb"E6 |]
w: 1.~Sea-qui, Se-nhor, bem pou-cos Te vêm can-tar lou-vor, Eaos vis pra-ze-res lou-cos Pre-fe-rem teu a-mor, O queim-pos-sí-vel se_ja A Ti, meu Deus,_ não_ há: Con_quis-tea tu-ai-gre-ja Ao_ meu pa-ís, Jeo-vá!
w: 2.~Je-sus, ao Po-voins-pi-ra, Tu, queés ver-da-dee luz; Que-bran-ta-lhea men-ti-ra, Das tre-vas o con-duz. Da ce-gai-do-la-tri_a, Oh, sal-vao, meu_ Se_nhor! Trans_for-maem cla-ro di-a A_ noi-te de te-mor.
w: 3.~Se-nhor, Tu dás sus-ten-to Ao mun-do, com po-der, E dás-lhes man-da-men-to Pra Te re-co-nhe-cer. Po-rém aos que re-jei_tam A sal-va-ção_ ea_ cruz, E a gra-ça não a-cei-tam, Oh,_ dá per-dão, Je-sus!
W: 
W:
W: 1. Se aqui, Senhor, bem poucos
W: Te vêm cantar louvor,
W: E aos vis prazeres loucos
W: Preferem teu amor,
W: O que impossível seja
W: A Ti, meu Deus, não há:
W: Conquiste a tua igreja
W: Ao meu país, Jeová!
W: 
W: 2. Jesus, ao Povo inspira,
W: Tu, que és verdade e luz;
W: Quebranta-lhe a mentira,
W: Das trevas o conduz.
W: Da cega idolatria,
W: Oh, salva-o, meu Senhor!
W: Transforma em claro dia
W: A noite de temor.
W: 
W:
W:
W: 3. Senhor, Tu dás sustento
W: Ao mundo, com poder,
W: E dás-lhes mandamento
W: Pra Te reconhecer.
W: Porém aos que rejeitam
W: A salvação e a cruz,
W: E a graça não aceitam,
W: Oh, dá perdão, Jesus!
W:         
W: 





